X:1
T:Rondo D-dur
T:Rondo D-dur
T:KV 485
T:W. A. Mozart
C:W. A. Mozart
%%score ( 1 2 ) { ( 3 6 ) | ( 4 5 ) } ( 7 8 )
L:1/8
Q:1/4=200
M:4/4
K:D
V:1 treble transpose=-2 nm="B♭ Clarinet" snm="B♭ Cl."
V:2 treble transpose=-2 
V:3 treble nm="Piano" snm="Pno."
V:6 treble 
V:4 treble 
V:5 treble 
V:7 tenor nm="Bassoon" snm="Bsn."
V:8 tenor 
V:1
[K:E] b4 a<g f<e | a3 f d2 z2 | a4 g<f e<d | b3 g e2 z2 | c'd'/4c'/4b/ c'd' e'2 z b | z8 | %6
 b^a=af a^^fge | g/^f/e/d/ c/B/^A/B/ c/d/e/f/ =g/^g/=a/^a/ | b4 a<g f<e | a3 f d2 z2 | a4 g<f e<d | %11
 b3 g e2 z2 | c'd'/4c'/4b/ c'd' e'2 z b | z8 | gfac' e2 gf | e2 z B edcB | %16
 [AB][AB] z [AB] [AB][AB] z [AB] | cB z B edcB | z8 | z8 | g4 f<e d<c | a3 =c ^c2 z2 | %22
 f4 e<d c<=B | =g3 ^A B2 z2 | f3 =f b2 z2 | ^a3 c' e2 z c ||[K:D] ed z d edcB | ^Afff gf^e=e | %28
 ed z d edcB | ^Afff gf^e=e | ed z d/4e/4d/4c/4 edcB | f2 z c/4d/4c/4B/4 d2 z B | %32
 f2 z c/4d/4c/4B/4 d2 z B | fFFF FG^G=A | ^AB^Bc d^de^e |[K:B] f4 e<d c<B | e3 c A2 z2 | %37
 e'4 d'<c' b<a | f'3 d' ^b2 z2 | c'd'/4c'/4-^b/ c'd' e'3 a | =bc'/4b/4-a/ bc' =d'3 ^e | %41
 fb z d f=ecA | B/f/d/f/ B/f/d/f/ B/f/d/f/ B/f/d/f/ | c/f/e/f/ c/f/e/f/ c/f/e/f/ c/f/e/f/ | %44
 B/f/d/f/ B/f/d/f/ B/f/d/f/ B/f/d/f/ | c/f/e/f/ c/f/e/f/ c/f/e/f/ c/f/e/f/ | %46
 d/B/c/d/ e/f/g/a/ b/c'/d'/e'/ f' z | z/ E/F/G/ =A/B/c/d/ e/f/g/=a/ b z | z ^EGB =d^egb | %49
 =d'bg^e =dBG^E | FG/A/ B/c/^d/=e/ f/g/a/b/ c'/d'/e'/f'/ | %51
 B/4c/4d/4c/4d/4c/4d/4c/4 d/4c/4d/4c/4d/4c/4d/4c/4 d/4c/4d/4c/4d/4c/4d/4c/4 d/4c/4d/4c/4d/4c/4B/4c/4 | %52
 B2 z2 z bc'd' | e'4 d'c'b^a | f'3 d' bbc'd' | f' e'2 f'/e'/ d'c'ba | f'2- f'/d'/f'/d'/ bBcd | %57
 e3/2f/4g/4 fe dcBA | A4 B2 z2 :|[K:E] F4 E<D C<B, | E3 C ^A,2 z2 | f3 d =A2 z2 | d'3 ^b f2 z2 | %63
 G4 F<^E D<C | F3 D ^B,2 z2 | g3 ^e c2 z2 | =d'3 b g2 z2 | z8 | z8 | z8 | %70
"^Cembalo solo senza stromenti" z8 | z8 | z8 | z8 | z8 | z8 | z8 | z8 | z8 | z8 | z8 | z8 | z8 | %83
 z8 | z8 | z8 | z8 | z8 | z8 | z8 | z8 | z8 | z8 | z8 | b4 a<g f<e | a3 f d2 z2 | a4 g<f e<d | %97
 b3 g e2 z2 | c'd'/4c'/4b/ c'd' e'2 z b | c'd'/4c'/4b/ c'd' e'2 z b | b^a=af a^^fge | %101
 g/^f/e/d/ c/B/^A/B/ c/d/e/f/ =g/^g/=a/^a/ ||[K:G] b4 =a<g f<e | a3 f ^d2 z2 | a4 g<f e<^d | %105
 b3 g egab | c'3 a f2 z2 | c'3 a f2 z a | c'ac'c' c'ac'c' | c'4- (3c'^c'd' (3^d'e'd' | %110
 (3d'^c'=c' (3b_ba (3_agf (3=fe_e |[K:E] =d4 =c<B A<=G | =c3 A F2 z2 | =d'4 =c'<b a<=g | %114
 =c'3 a f2 z2 | b=gee af=dd | =ge=cc f=dBB | BA z A fe z e | b^a z a =g'e'g'e' | %119
 (3d'f'd' (3=c'b=a (3=gba (3gfe | (3dfd (3=cBA (3=GBA (3GFE | (3DFD z2 z4 | z8 | z8 | %124
 e/b/g/b/ e/b/g/b/ e/b/g/b/ e/b/g/b/ | f/b/a/b/ f/b/a/b/ f/b/a/b/ f/b/a/b/ | %126
 e/b/g/b/ e/b/g/b/ e/b/g/b/ e/b/g/b/ | f/^b/a/b/ f/b/a/b/ f/b/a/b/ f/b/a/b/ | %128
 e/c'/g/c'/ e/c'/g/c'/ e/c'/g/c'/ e/c'/g/c'/ | ^e/=d'/g/d'/ e/d'/g/d'/ e/d'/g/d'/ e/d'/g/d'/ | %130
 f/c'/a/c'/ f/c'/a/c'/ ^e/=d'/g/d'/ e/d'/g/d'/ | f/c'/a/c'/ f/c'/a/c'/ ^e/=d'/g/d'/ e/d'/g/d'/ | %132
 c'/d'/e'/d'/ c'/b/a/g/ f/g/a/g/ f/e/d/c/ | Bc/d/ e/f/g/a/ b/a/g/a/ b/c'/d'/e'/ | %134
 e/4f/4g/4f/4g/4f/4g/4f/4 g/4f/4g/4f/4g/4f/4g/4f/4 g/4f/4g/4f/4g/4f/4g/4f/4 g/4f/4g/4f/4g/4f/4e/4f/4 | %135
 e2 z2 e>=c e>c | =f2 z2 f>=d f>d | =g4 =f<e =d<=c | =f3 =d B2 z2 | =g4 =f<e =d<=c | =f3 =d B2 z2 | %141
 e>=c =gg e>c gg | e>B =gg e>^A gg | z/ B,/C/D/ E/F/G/A/ B/E/F/G/ A/B/c/d/ | %144
 e/B/c/d/ e/f/g/a/ b/e/f/g/ a/b/c'/d'/ | e'd' c'/4d'/4c'/4d'/4b a/4b/4a/4b/4g f/4g/4f/4g/4e | %146
 f/4g/4f/4g/4f/4g/4f/4g/4 f/4g/4f/4g/4f/4g/4f/4g/4 f/4g/4f/4g/4f/4g/4f/4g/4 f/4g/4f/4g/4f/4g/4e/4f/4 | %147
 e2 z2 z efg | a4 gfed | b3 g eefg | b a2 b/a/ gfed | b2- b/g/b/g/ eefg | %152
 ab/4a/4g/ a^a bc'/4b/4a/ b^b | (3c'd'e' (3d'c'b (3aba (3gfe | e<d d>d d2 d2 | e2 z2 z4 | z8 | %157
 B4 A<G F<E | E<D D>D D2 D2 | E2 z2 z4 | A4 G<F E<D | b4 a<g f<e | e<d d>d d2 d2 | e4 edcd | %164
 e4 edcd | [Ge]2 z2 [Ge]2 z2 | [EGBe]4 z4 |] %167
V:2
[K:E] x8 | x8 | x8 | x8 | x8 | x8 | x8 | x8 | x8 | x8 | x8 | x8 | x8 | x8 | x8 | x8 | x8 | G2 x6 | %18
 x8 | x8 | x8 | x8 | x8 | x8 | x8 | x8 ||[K:D] x8 | x8 | x8 | x8 | x8 | x8 | x8 | x8 | x8 | %35
[K:B] x8 | x8 | x8 | x8 | x8 | x8 | x8 | x8 | x8 | x8 | x8 | x8 | x8 | x8 | x8 | x8 | x8 | x8 | %53
 x8 | x8 | x8 | x8 | x8 | x8 :|[K:E] x8 | x8 | x8 | x8 | x8 | x8 | x8 | x8 | x8 | x8 | x8 | x8 | %71
 x8 | x8 | x8 | x8 | x8 | x8 | x8 | x8 | x8 | x8 | x8 | x8 | x8 | x8 | x8 | x8 | x8 | x8 | x8 | %90
 x8 | x8 | x8 | x8 | x8 | x8 | x8 | x8 | x8 | x8 | x8 | x8 ||[K:G] x8 | x8 | x8 | x8 | x8 | x8 | %108
 x8 | x8 | x8 |[K:E] x8 | x8 | x8 | x8 | x8 | x8 | x8 | x8 | x8 | x8 | x8 | x8 | x8 | x8 | x8 | %126
 x8 | x8 | x8 | x8 | x8 | x8 | x8 | x8 | x8 | x8 | x8 | x8 | x8 | x8 | x8 | x8 | x8 | x8 | x8 | %145
 x8 | x8 | x8 | x8 | x8 | x8 | x8 | x8 | x8 | x8 | x8 | x8 | x8 | x8 | x8 | x8 | x8 | x8 | x4 A4 | %164
 G4 A4 | x8 | x8 |] %167
V:3
 a4 g<f e<d | g3 e c2 z2 | g4 f<e d<c | a3 f d2 z2 | bc'/4b/4a/ bc' d'2 z a | %5
 bc'/4b/4a/ bc' d'2 z a | a^g=ge g^efd | f/=e/d/c/ B/A/^G/A/ B/c/d/e/ =f/^f/=g/^g/ | a4 g<f e<d | %9
 g3 e c2 z2 | g4 f<e d<c | a3 f d2 z2 | bc'/4b/4a/ bc' d'2 z a | bc'/4b/4a/ bc' d'agf | %14
 fegb d2 fe | d2 z A dcBA | [GA][GA] z [GA] [GA][GA] z [GA] | BA z A dcBA | %18
 [GA][GA] z [GA] [GA][GA] z [GA] | BA z A Bcde | f4 e<d c<B | g3 ^A B2 z2 | e4 d<c B<=A | %23
 =f3 ^G A2 z2 | e3 ^d a2 z2 | ^g3 b d2 z B ||[K:C] dc z c dcBA | ^Geee fe^d=d | dc z c dcBA | %29
 ^Geee fe^d=d | dc z c/4d/4c/4B/4 dcBA | e2 z B/4c/4B/4A/4 c2 z A | e2 z B/4c/4B/4A/4 c2 z A | %33
 eEEE EF^F=G | ^GA^AB c^cd^d |[K:A] e4 d<c B<A | d3 B G2 z2 | d'4 c'<b a<g | e'3 c' ^a2 z2 | %39
 bc'/4b/4-^a/ bc' d'3 g | =ab/4a/4-g/ ab =c'3 ^d | ea z c e=dBG | %42
 A/e/c/e/ A/e/c/e/ A/e/c/e/ A/e/c/e/ | B/e/d/e/ B/e/d/e/ B/e/d/e/ B/e/d/e/ | %44
 A/e/c/e/ A/e/c/e/ A/e/c/e/ A/e/c/e/ | B/e/d/e/ B/e/d/e/ B/e/d/e/ B/e/d/e/ | %46
 c/A/B/c/ d/e/f/g/ a/b/c'/d'/ e' z | z/ D/E/F/ =G/A/B/c/ d/e/f/=g/ a z | z ^DFA =c^dfa | %49
 =c'af^d =cAF^D | EF/G/ A/B/^c/=d/ e/f/g/a/ b/c'/d'/e'/ | %51
 A/4B/4c/4B/4c/4B/4c/4B/4 c/4B/4c/4B/4c/4B/4c/4B/4 c/4B/4c/4B/4c/4B/4c/4B/4 c/4B/4c/4B/4c/4B/4A/4B/4 | %52
 A2 z2 z abc' | d'4 c'ba^g | e'3 c' aabc' | e' d'2 e'/d'/ c'bag | e'2- e'/c'/e'/c'/ aABc | %57
 d3/2e/4f/4 ed cBAG | G4 A2 z2 :|[K:D] E4 D<C B,<A, | D3 B, ^G,2 z2 | e3 c =G2 z2 | c'3 ^a e2 z2 | %63
 F4 E<^D C<B, | E3 C ^A,2 z2 | f3 ^d B2 z2 | =c'3 a f2 z2 | z d/e/ ff/g/ af/g/ aa/b/ | %68
 =c'e'/d'/ c'c'/b/ ac'/b/ aa/g/ | fa^g=g f=fe_e | d4 =c<B A<G | =c3 A F2 z2 | =c'4 b<a g<f | %73
 d'3 b g2 z2 | ef/4e/4d/ ef g2 z d | ef/4e/4d/ ef gd=cB | BA=ce G2 BA | G2 z D GFED | %78
 [=CD][CD] z [CD] [CD][CD] z [CD] | ED z D GFE^D | [DE]D z [DE] [DE][DE] z [DE] | FE z E A=GF^E | %82
 [EF][EF] z [EF] [EF][EF] z [EF] | GF z F AGBG | ^EFAF ^D=EGE | CD z d g/b/g/f/ g/a/b/g/ | %86
 f/g/f/^e/ f/g/a/f/ =e/f/e/^d/ e/f/g/e/ | =d/e/d/c/ d/A/B/c/ d/e/f/g/ a/b/c'/d'/ | %88
 c'/b/d'/c'/ b/a/g/f/ a/g/b/a/ g/f/e/d/ | c2 z A/B/ cc/d/ ee/f/ | g2 z b/a/ gg/f/ ee/d/ | %91
 c2 z e/d/ c2 z e/d/ | cgec' ge'd'c' | ba^ga gaba | a4 g<f e<d | g3 e c2 z2 | g4 f<e d<c | %97
 a3 f d2 z2 | bc'/4b/4a/ bc' d'2 z a | bc'/4b/4a/ bc' d'2 z a | a^g=ge g^efd | %101
 f/=e/d/c/ B/A/^G/A/ B/c/d/e/ =f/^f/=g/^g/ ||[K:F] a4 =g<f e<d | g3 e ^c2 z2 | g4 f<e d<^c | %105
 a3 f dfga | b3 g e2 z2 | b3 g e2 z g | bgbb bgbb | b4- (3b=bc' (3^c'd'c' | %110
 (3c'=b_b (3a_ag (3_gfe (3_ed_d |[K:D] =c4 _B<A G<=F | _B3 G E2 z2 | =c'4 _b<a g<=f | _b3 g e2 z2 | %115
 a=fdd ge=cc | =fd_BB e=cAA | AG z G ed z d | a^g z g =f'd'f'd' | (3c'e'c' (3_ba=g (3=fag (3fed | %120
 (3cec (3_BAG (3=FAG (3FED | (3CEC z2 z4 | z8 | z8 | d/a/f/a/ d/a/f/a/ d/a/f/a/ d/a/f/a/ | %125
 e/a/g/a/ e/a/g/a/ e/a/g/a/ e/a/g/a/ | d/a/f/a/ d/a/f/a/ d/a/f/a/ d/a/f/a/ | %127
 e/^a/g/a/ e/a/g/a/ e/a/g/a/ e/a/g/a/ | d/b/f/b/ d/b/f/b/ d/b/f/b/ d/b/f/b/ | %129
 ^d/=c'/f/c'/ d/c'/f/c'/ d/c'/f/c'/ d/c'/f/c'/ | e/b/g/b/ e/b/g/b/ ^d/=c'/f/c'/ d/c'/f/c'/ | %131
 e/b/g/b/ e/b/g/b/ ^d/=c'/f/c'/ d/c'/f/c'/ | b/c'/d'/c'/ b/a/g/f/ e/f/g/f/ e/d/c/B/ | %133
 AB/c/ d/e/f/g/ a/g/f/g/ a/b/c'/d'/ | %134
 d/4e/4f/4e/4f/4e/4f/4e/4 f/4e/4f/4e/4f/4e/4f/4e/4 f/4e/4f/4e/4f/4e/4f/4e/4 f/4e/4f/4e/4f/4e/4d/4e/4 | %135
 d2 z2 d>_B d>B | _e2 z2 e>=c e>c | =f4 _e<d =c<_B | _e3 =c A2 z2 | =f4 _e<d =c<_B | _e3 =c A2 z2 | %141
 d>_B =ff d>B ff | d>A =ff d>^G ff | z/ A,/B,/C/ D/E/F/G/ A/D/E/F/ G/A/B/c/ | %144
 d/A/B/c/ d/e/f/g/ a/d/e/f/ g/a/b/c'/ | d'c' b/4c'/4b/4c'/4a g/4a/4g/4a/4f e/4f/4e/4f/4d | %146
 e/4f/4e/4f/4e/4f/4e/4f/4 e/4f/4e/4f/4e/4f/4e/4f/4 e/4f/4e/4f/4e/4f/4e/4f/4 e/4f/4e/4f/4e/4f/4d/4e/4 | %147
 d2 z2 z def | g4 fedc | a3 f ddef | a g2 a/g/ fedc | a2- a/f/a/f/ ddef | %152
 ga/4g/4f/ g^g ab/4a/4g/ a^a | (3bc'd' (3c'ba (3gag (3fed | d<c c>c c2 c2 | d2 z2 z4 | z8 | %157
 A4 G<F E<D | D<C C>C C2 C2 | D2 z2 z4 | G4 F<E D<C | a4 g<f e<d | d<c c>c c2 c2 | d4 dcBc | %164
 d4 dcBc | [Fd]2 z2 [Fd]2 z2 | [Fd]4 z4 |] %167
V:4
 FAFA FAFA | GAGA GAGA | GAGA GAGA | FAFA FAFA | GBGA FAFA | GBGB FAFA | z2 [CEA]2 z2 [DFA]2 | %7
 [A,C]2 z2 z4 | FAFA FAFA | GAGA GAGA | GAGA GAGA | FAFA FAFA | GBGA FAFA | GBGA F2 z2 | %14
 z2 E2 F2 G2 |[K:bass] F2 D,2 z2 D,2 | C,2 D,2 E,2 C,2 | D,2 D,,2 z2 D,2 | C,2 D,2 E,2 C,2 | %19
 D,2 D,,2 z4 | D,B,F,B, D,B,F,B, | E,CG,C D,B,F,B, | C,A,E,A, C,A,E,A, | D,B,=F,B, C,A,E,A, | %24
 z2 [B,^FA]2 [B,^DF]2 [B,DF]2 | z2 [E,B,=D]2 [E,^G,B,]2 [E,G,B,]2 ||[K:C] E,A,CA, E,A,CA, | %27
 E,B,DB, E,^G,B,G, | E,A,CA, E,A,CA, | E,B,DB, E,^G,B,G, | E,A,CA, E,A,CA, | E,^G,B,G, E,A,CA, | %32
 E,^G,B,G, E,A,CA, | [E,^G,]2 z2 z4 | z8 |[K:A][K:treble] CECE CECE | DEDE DEDE | DEDE DEDE | %38
 E=GEG EGEG | [DF]2 z4 [D=F]2 | [=CE]2 z4 [F,A,]2 |[K:bass] E,A,^CA, E,B,DB, | E4 D<C B,<A, | %43
 D3 B, G,2 z2 | E4 D<C B,<A, | D3 B, G,2 z2 | A, z4 z2 [C,,C,] | [D,,D,]2 z4 z [D,,D,] | %48
 [^D,,^D,]2 z2 z4 | z2 z ^D =CA,F,^D, | [E,,E,]2 z2 z4 | E,DG,D E,DB,D |[K:treble] CA,AA, GA,=GA, | %53
 FA,=FA, EA,DA, | CA,AA, GA,=GA, | FA,=FA, EA,DA, | CA,AA, GA,=GA, | [A,F]2 z4 [A,B,D]2 | %58
[K:bass] [A,B,D]4 [A,C]2 z2 :|[K:D] [E,,E,]4 D,<C, B,,<A,, | D,3 B,, ^G,,2 z2 | [A,C]6 z2 | %62
 [^A,CF]6 z2 | [F,,F,]4 E,<^D, C,<B,, | E,3 C, ^A,,2 z2 | [B,^D]6 z2 | [A,=CD]6 z2 | z8 | z8 | z8 | %70
 B,DB,D B,DB,D | =CDCD CDCD | =CDCD CDCD | B,DB,D B,DB,D | =CECE B,DB,D | =CECD B,2 z2 | %76
 z2 A,2 B,2 =C2 | B,2 G,,2 z2 G,,2 | F,,2 G,,2 A,,2 F,,2 | G,,2 G,,2 z2 A,,2 | %80
 ^G,,2 A,,2 B,,2 G,,2 | A,,2 A,,2 z2 B,,2 | ^A,,2 B,,2 C,2 A,,2 | B,,2 B,,2 z2 [B,D]2 | %84
 z2 [=A,C]2 z2 [G,B,]2 | z2 [F,A,]2 B,DGD | A,CFC G,B,EB, | A,6 D2 | D8 | A,2 A,,2 z4 | %90
 z2 [A,CEG]2 z4 | z [_B,EG] [A,EG]2 z [B,EG] [A,EG]2 | z8 | [A,CEG]8 |[K:treble] FAFA FAFA | %95
 GAGA GAGA | GAGA GAGA | FAFA FAFA | GBGA FAFA | GBGA FAFA | z2 [CEA]2 z2 [DFA]2 | [A,C]2 z2 z4 || %102
[K:F] FAFA FAFA | GAGA GAGA | GAGA GAGA | FAFA F2 z2 | z4 B3 G | E2 z2 B3 G | %108
[K:bass] [CE]2 [_D,_D]2 [C,C]2 [D,D]2 | [C,C]4 z4 | z8 |[K:D] A,=CA,C A,CA,C | _B,=CB,C B,CB,C | %113
 A,=CA,C A,CA,C | _B,^CB,C B,CB,C | =F,A,DA, E,G,=CG, | D,=F,_B,F, =C,E,A,E, | %117
 z2 [_B,,D,]2 z2 [B,,^G,]2 |[K:treble] z2 [_B,D]2 z2 [B,^G]2 | A2 ^C2 D2 =F2 | %120
[K:bass] E2 ^C,2 D,2 =F,2 | [A,,E,]2 (3_B,A,G, (3=F,A,G, (3F,E,D, | %122
 (3C,A,,=B,, (3=C,^C,D, (3^D,E,=F, (3^F,G,^G, | (3A,_B,=B, (3=C^C=D (3^DE=F (3^F=G^G | %124
[K:treble] A4 G<F E<D | G3 E C2 z2 | A4 G<F E<D | G3 E C2 z2 |[K:bass] F3 D B,2 z2 | A,3 =C F2 z2 | %130
 G,>B, E2 A,>=C F2 | G,>B, E2 A,>=C F2 | [G,B,E]8 | [A,DF]2 z2 z4 |[K:treble] A,GCG A,GCG | %135
 [_B,=F]2 z2 z4 | [_B,=CA]2 z2 z4 |[K:bass] D=FDF DFDF | _E=FEF EFEF | D=FDF DFDF | _E=FEF EFEF | %141
 [_B,D=F]2 z2 [_B,,B,]4 | [A,,A,]4 [^G,,^G,]4 | [A,,,A,,]2 z2 z4 | z8 | %145
 A,/F/D/F/ A,/F/D/F/ A,/F/D/F/ A,/F/D/F/ | A,/G/C/G/ A,/G/C/G/ A,/G/C/G/ A,/G/C/G/ | %147
 z D,DD, CD,=CD, | B,D,_B,D, A,D,G,D, | F,D,DD, ^CD,=CD, | =B,D,_B,D, A,D,G,D, | F,D,DD, CD,=CD, | %152
 [D,B,]4 [D,F,]4 | [D,G,]2 z2 z4 | [A,EG]8 | D,,D,F,,D, A,,D,F,,D, | D,,C,E,,C, G,,C,E,,C, | %157
 D,,D,F,,D, A,,D,F,,D, | D,,A,,E,,A,, G,,A,,E,,A,, | D,,D,F,,D, A,,D,F,,D, | %160
 D,,A,,E,,A,, G,,A,,E,,A,, | D,,D,E,,D, A,,D,F,,D, | D,,A,,E,,A,, G,,A,,E,,A,, | %163
 D,,A,,F,,A,, A,,,A,,E,,A,, | D,,A,,F,,A,, A,,,A,,E,,A,, | D,,2 z2 [D,,D,]2 z2 | [D,,D,]4 z4 |] %167
V:5
 D2 D2 D2 D2 | E2 E2 E2 E2 | E2 E2 E2 E2 | D2 D2 D2 D2 | D2 D2 D2 D2 | D2 D2 D2 D2 | x8 | x8 | %8
 D2 D2 D2 D2 | E2 E2 E2 E2 | E2 E2 E2 E2 | D2 D2 D2 D2 | D2 D2 D2 D2 | D2 D2 D2 x2 | x2 G,2 A,4 | %15
[K:bass] D2 x6 | x8 | x8 | x8 | x8 | x8 | x8 | x8 | x8 | x8 | x8 ||[K:C] x8 | x8 | x8 | x8 | x8 | %31
 x8 | x8 | x8 | x8 |[K:A][K:treble] A,2 A,2 A,2 A,2 | B,2 B,2 B,2 B,2 | B,2 B,2 B,2 B,2 | %38
 C2 C2 C2 C2 | x8 | x8 |[K:bass] x8 | x8 | x8 | x8 | x8 | x8 | x8 | x8 | x8 | x8 | x8 | %52
[K:treble] x8 | x8 | x8 | x8 | x8 | x8 |[K:bass] x8 :|[K:D] x8 | x8 | x8 | x8 | x8 | x8 | x8 | x8 | %67
 x8 | x8 | x8 | G,2 G,2 G,2 G,2 | A,2 A,2 A,2 A,2 | A,2 A,2 A,2 A,2 | G,2 G,2 G,2 G,2 | %74
 G,2 G,2 G,2 G,2 | G,2 G,2 G,2 x2 | x2 =C,2 D,4 | G,2 x6 | x8 | x8 | x8 | x8 | x8 | x8 | x8 | x8 | %86
 x8 | F,8 | G,3 A, B,3 ^G, | x8 | x8 | x8 | x8 | x8 |[K:treble] D2 D2 D2 D2 | E2 E2 E2 E2 | %96
 E2 E2 E2 E2 | D2 D2 D2 D2 | D2 D2 D2 D2 | D2 D2 D2 D2 | x8 | x8 ||[K:F] D2 D2 D2 D2 | %103
 E2 E2 E2 E2 | E2 E2 E2 E2 | D2 D2 x4 | x4 _D4 | C2 x2 _D4 |[K:bass] x8 | x8 | x8 | %111
[K:D] =F,2 F,2 F,2 F,2 | G,2 G,2 G,2 G,2 | =F,2 F,2 F,2 F,2 | G,2 G,2 G,2 G,2 | x8 | x8 | x8 | %118
[K:treble] x8 | A,2 A,6 |[K:bass] C,2 A,,6 | x8 | x8 | x8 |[K:treble] x8 | x8 | x8 | x8 | %128
[K:bass] x8 | x8 | x8 | x8 | x8 | x8 |[K:treble] x8 | x8 | x8 |[K:bass] _B,2 B,2 B,2 B,2 | %138
 =C2 C2 C2 C2 | _B,2 B,2 B,2 B,2 | =C2 C2 C2 C2 | x8 | x8 | x8 | x8 | x8 | x8 | x8 | x8 | x8 | x8 | %151
 x8 | x8 | x8 | x8 | x8 | x8 | x8 | x8 | x8 | x8 | x8 | x8 | x8 | x8 | x8 | x8 |] %167
V:6
 x8 | x8 | x8 | x8 | x8 | x8 | x8 | x8 | x8 | x8 | x8 | x8 | x8 | x8 | x8 | x8 | x8 | F2 x6 | x8 | %19
 F2 x6 | x8 | x8 | x8 | x8 | x8 | x8 ||[K:C] x8 | x8 | x8 | x8 | x8 | x8 | x8 | x8 | x8 |[K:A] x8 | %36
 x8 | x8 | x8 | x8 | x8 | x8 | x8 | x8 | x8 | x8 | x8 | x8 | x8 | x8 | x8 | x8 | x8 | x8 | x8 | %55
 x8 | x8 | x8 | x8 :|[K:D] x8 | x8 | x8 | x8 | x8 | x8 | x8 | x8 | x8 | x8 | x8 | x8 | x8 | x8 | %73
 x8 | x8 | x8 | x6 F2 | x8 | x8 | B,2 x6 | x8 | ^C2 x6 | x8 | D2 x6 | x8 | x8 | x8 | x8 | x8 | x8 | %90
 x8 | x8 | x8 | x8 | x8 | x8 | x8 | x8 | x8 | x8 | x8 | x8 ||[K:F] x8 | x8 | x8 | x8 | x8 | x8 | %108
 x8 | x8 | x8 |[K:D] x8 | x8 | x8 | x8 | x8 | x8 | x8 | x8 | x8 | x8 | x8 | x8 | x8 | x8 | x8 | %126
 x8 | x8 | x8 | x8 | x8 | x8 | x8 | x8 | x8 | x8 | x8 | x8 | x8 | x8 | x8 | x8 | x8 | x8 | x8 | %145
 x8 | x8 | x8 | x8 | x8 | x8 | x8 | x8 | x8 | x8 | x8 | x8 | x8 | x8 | x8 | x8 | x8 | x8 | x4 G4 | %164
 F4 G4 | x8 | x8 |] %167
V:7
 FAFA FAFA | GAGA GAGA | GAGA GAGA | FAFA FAFA | GBGA FAFA | GBGB FAFA | z2 [CEA]2 z2 [DFA]2 | %7
 [A,C]2 z2 z4 | FAFA FAFA | GAGA GAGA | GAGA GAGA | FAFA FAFA | GBGA FAFA | GBGA F2 z2 | %14
 z2 E2 F2 G2 |[K:bass] F2 D,2 z2 D,2 | C,2 D,2 E,2 C,2 | D,2 D,,2 z2 D,2 | C,2 D,2 E,2 C,2 | %19
 D,2 D,,2 z4 | D,B,F,B, D,B,F,B, | E,CG,C D,B,F,B, | C,A,E,A, C,A,E,A, | D,B,=F,B, C,A,E,A, | %24
 z2 [B,^FA]2 [B,^DF]2 [B,DF]2 | z2 [E,B,=D]2 [E,^G,B,]2 [E,G,B,]2 ||[K:C] E,A,CA, E,A,CA, | %27
 E,B,DB, E,_A,B,A, | E,A,CA, E,A,CA, | E,B,DB, E,^G,B,G, | E,A,CA, E,A,CA, | E,^G,B,G, E,A,CA, | %32
 E,^G,B,G, E,A,CA, | [E,^G,]2 z2 z4 | z8 |[K:A] CECE CECE | z8 | z8 | z8 | z8 | z8 | z8 | z8 | z8 | %44
 z8 | z8 | z8 | z8 | z8 | z8 | z8 | z8 | z8 | z8 | z8 | z8 | z8 | z8 | z8 :|[K:D] z8 | z8 | z8 | %62
 z8 | z8 | z8 | z8 | z8 | z8 | z8 | z8 | z8 | z8 | z8 | z8 | z8 | z8 | z8 | z8 | z8 | z8 | z8 | %81
 z8 | z8 | z8 | z8 | z8 | z8 | z8 | z8 | z8 | z8 | z8 | z8 | z8 | z8 | z8 | z8 | z8 | z8 | z8 | %100
 z8 | z8 ||[K:F] z8 | z8 | z8 | z8 | z8 | z8 | z8 | z8 | z8 |[K:D] z8 | z8 | z8 | z8 | z8 | z8 | %117
 z8 | z8 | z8 | z8 | z8 | z8 | z8 | z8 | z8 | z8 | z8 | z8 | z8 | z8 | z8 | z8 | z8 | z8 | z8 | %136
 z8 | z8 | z8 | z8 | z8 | z8 | z8 | z8 | z8 | z8 | z8 | z8 | z8 | z8 | z8 | z8 | z8 | z8 | z8 | %155
 z8 | z8 | z8 | z8 | z8 | z8 | z8 | z8 | z8 | z8 | z8 | z8 |] %167
V:8
 D2 D2 D2 D2 | E2 E2 E2 E2 | E2 E2 E2 E2 | D2 D2 D2 D2 | D2 D2 D2 D2 | D2 D2 D2 D2 | x8 | x8 | %8
 D2 D2 D2 D2 | E2 E2 E2 E2 | E2 E2 E2 E2 | D2 D2 D2 D2 | D2 D2 D2 D2 | D2 D2 D2 x2 | x2 G,2 A,4 | %15
[K:bass] D2 x6 | x8 | x8 | x8 | x8 | x8 | x8 | x8 | x8 | x8 | x8 ||[K:C] x8 | x8 | x8 | x8 | x8 | %31
 x8 | x8 | x8 | x8 |[K:A] A,2 A,2 A,2 A,2 | x8 | x8 | x8 | x8 | x8 | x8 | x8 | x8 | x8 | x8 | x8 | %47
 x8 | x8 | x8 | x8 | x8 | x8 | x8 | x8 | x8 | x8 | x8 | x8 :|[K:D] x8 | x8 | x8 | x8 | x8 | x8 | %65
 x8 | x8 | x8 | x8 | x8 | x8 | x8 | x8 | x8 | x8 | x8 | x8 | x8 | x8 | x8 | x8 | x8 | x8 | x8 | %84
 x8 | x8 | x8 | x8 | x8 | x8 | x8 | x8 | x8 | x8 | x8 | x8 | x8 | x8 | x8 | x8 | x8 | x8 || %102
[K:F] x8 | x8 | x8 | x8 | x8 | x8 | x8 | x8 | x8 |[K:D] x8 | x8 | x8 | x8 | x8 | x8 | x8 | x8 | %119
 x8 | x8 | x8 | x8 | x8 | x8 | x8 | x8 | x8 | x8 | x8 | x8 | x8 | x8 | x8 | x8 | x8 | x8 | x8 | %138
 x8 | x8 | x8 | x8 | x8 | x8 | x8 | x8 | x8 | x8 | x8 | x8 | x8 | x8 | x8 | x8 | x8 | x8 | x8 | %157
 x8 | x8 | x8 | x8 | x8 | x8 | x8 | x8 | x8 | x8 |] %167

